X:1
T:O How Shall I Keep My Christmas?
T:O How Shall I Keep My Christmas?
T:John Worcester (1834-1900)
T:Public Domain Courtesy of the Cyber Hymnal™
C:John Worcester (1834-1900)
Z:Public Domain
Z:Courtesy of the Cyber Hymnal™
%%score ( 1 2 ) ( 3 4 )
L:1/8
Q:1/4=100
M:6/8
K:G
V:1 treble 
V:2 treble 
V:3 bass 
V:4 bass 
V:1
 D | [DG][DG][DG] [FA][GB][Ac] | [GB]3 G2 [DG] | [EG][EG][EG] [CE][CE][CE] | [B,D]4 z [B,D] | %5
 [CE][CE][CE] [EG][DF][CE] | [CE]3 [B,D]2 [B,D]/[B,D]/ | [A,D]2 [A,D] [CE]2 [CD] | [B,D]4 z [B,D] | %9
 [CE][CE][CE] [CF][CF][CF] | [DG]3 [EG]2 [EG] | [FA][GB][Ac] [Bd]2 [Ac] | [GB]4 z [GB]/[GB]/ | %13
 [GB]2 [GB] [FB]2 [FA]/[FA]/ | [EA]3 [EG]2 [DF]/[CE]/ | [B,D]2 [DG] [D-F][DE][DF] | [DG]6 |] %17
V:2
 D | x6 | x6 | x6 | x6 | x6 | x6 | x6 | x6 | x6 | x6 | x6 | x6 | x6 | x6 | x6 | x6 |] %17
V:3
 D, | [G,B,][G,B,][G,B,] [D,D]2 [D,D] | [G,D]3 [G,B,]2 [G,B,] | %3
 [C,C][C,C][C,C] [C,G,][C,G,][C,G,] | [G,,G,]4 z [G,,G,] | [C,G,][C,G,][C,G,] [C,C][C,G,][C,G,] | %6
 [D,G,]3 [D,G,]2 [D,G,]/[D,G,]/ | [D,F,]2 [D,F,] [D,F,]2 [D,F,] | [G,,G,]4 z G, | %9
 [C,G,][C,G,][C,G,] [A,,A,][A,,A,][A,,A,] | [B,,G,]3 [E,B,]2 [E,B,] | [D,D]2 [D,D] [D,D]2 [D,D] | %12
 [G,D]4 z [D,D]/[D,D]/ | [E,E]2 [E,E] [B,^D]2 [B,D]/[B,D]/ | [CE]3 [C,C]2 [A,,G,]/[A,,A,]/ | %15
 [D,B,]2 [D,B,] [D,A,]2 [D,C] | [G,,G,B,]6 |] %17
V:4
 D, | x6 | x6 | x6 | x6 | x6 | x6 | x6 | x6 | x6 | x6 | x6 | x6 | x6 | x6 | x6 | x6 |] %17

